contributed-vectors/polskie_radio.svg

<?xml version="1.0" encoding="UTF-8" standalone="no"?>
<svg
   xmlns:dc="http://purl.org/dc/elements/1.1/"
   xmlns:cc="http://creativecommons.org/ns#"
   xmlns:rdf="http://www.w3.org/1999/02/22-rdf-syntax-ns#"
   xmlns:svg="http://www.w3.org/2000/svg"
   xmlns="http://www.w3.org/2000/svg"
   xmlns:sodipodi="http://sodipodi.sourceforge.net/DTD/sodipodi-0.dtd"
   xmlns:inkscape="http://www.inkscape.org/namespaces/inkscape"
   width="100%"
   height="100%"
   viewBox="0 0 192 192"
   version="1.1"
   xml:space="preserve"
   style="fill-rule:evenodd;clip-rule:evenodd;stroke-linejoin:round;stroke-miterlimit:2;"
   id="svg40"
   sodipodi:docname="polskie_radio.svg"
   inkscape:version="1.0.1 (3bc2e813f5, 2020-09-07)"
   inkscape:export-filename="/home/jphilippe/github/delta/android/contributed-vectors/polskie_radio.png"
   inkscape:export-xdpi="96"
   inkscape:export-ydpi="96"><metadata
   id="metadata46"><rdf:RDF><cc:Work
       rdf:about=""><dc:format>image/svg+xml</dc:format><dc:type
         rdf:resource="http://purl.org/dc/dcmitype/StillImage" /></cc:Work></rdf:RDF></metadata><defs
   id="defs44">
        
    
            
        
                
                
                
                
                
                
                
            </defs><sodipodi:namedview
   pagecolor="#ffffff"
   bordercolor="#666666"
   borderopacity="1"
   objecttolerance="10"
   gridtolerance="10"
   guidetolerance="10"
   inkscape:pageopacity="0"
   inkscape:pageshadow="2"
   inkscape:window-width="1398"
   inkscape:window-height="919"
   id="namedview42"
   showgrid="false"
   inkscape:zoom="1.1914013"
   inkscape:cx="-32.839356"
   inkscape:cy="16.402702"
   inkscape:window-x="2068"
   inkscape:window-y="30"
   inkscape:window-maximized="0"
   inkscape:current-layer="svg40" />
    <g
   transform="matrix(1,0,0,1,8,8)"
   id="g5"
   style="fill:#56595b;fill-opacity:1">
        <g
   id="Layer1"
   style="fill:#56595b;fill-opacity:1">
            <path
   d="M164.5,21.5C164.5,15.981 160.019,11.5 154.5,11.5L21.5,11.5C15.981,11.5 11.5,15.981 11.5,21.5L11.5,154.5C11.5,160.019 15.981,164.5 21.5,164.5L154.5,164.5C160.019,164.5 164.5,160.019 164.5,154.5L164.5,21.5Z"
   style="fill:#56595b;fill-opacity:1"
   id="path2" />
        </g>
    </g>
    <g
   transform="matrix(0.9999983,0,0,0.9999983,4.13376e-5,1.1816e-6)"
   id="g9">
                    <path
   d="m 131.957,62.344 c 0,-0.531 -0.21,-1.04 -0.586,-1.415 -0.375,-0.375 -0.883,-0.585 -1.414,-0.585 H 62.301 c -0.531,0 -1.039,0.21 -1.414,0.585 -0.376,0.375 -0.586,0.884 -0.586,1.415 V 130 c 0,0.53 0.21,1.039 0.586,1.414 0.375,0.375 0.883,0.586 1.414,0.586 h 67.656 c 0.531,0 1.039,-0.211 1.414,-0.586 0.376,-0.375 0.586,-0.884 0.586,-1.414 z m -5.223,5.222 c 0,-1.104 -0.895,-2 -2,-2 h -57.21 c -1.105,0 -2,0.896 -2,2 v 57.211 c 0,1.105 0.895,2 2,2 h 57.21 c 1.105,0 2,-0.895 2,-2 z"
   style="fill:#ff837d"
   id="path7" />
                </g><g
   transform="matrix(0.85028583,0,0,0.85028583,14.285199,14.256225)"
   id="g13">
                    <circle
   cx="96.128998"
   cy="96.171997"
   r="37.021999"
   style="fill:#ff837d"
   id="circle11" />
                </g><g
   transform="matrix(0.71955898,0,0,0.71955898,26.851812,26.82846)"
   id="g17"
   style="fill:#56595b;fill-opacity:1">
                    <circle
   cx="96.128998"
   cy="96.171997"
   r="37.021999"
   style="fill:#56595b;fill-opacity:1"
   id="circle15" />
                </g><g
   transform="matrix(0.6089313,0,0,0.6089313,37.486441,37.4678)"
   id="g21">
                    <circle
   cx="96.128998"
   cy="96.171997"
   r="37.021999"
   style="fill:#ff837d"
   id="circle19" />
                </g><g
   transform="matrix(0.46523957,0,0,0.46523957,51.299338,51.286815)"
   id="g25"
   style="fill:#56595b;fill-opacity:1">
                    <circle
   cx="96.128998"
   cy="96.171997"
   r="37.021999"
   style="fill:#56595b;fill-opacity:1"
   id="circle23" />
                </g><g
   transform="matrix(0.34740816,0,0,0.34740816,62.626397,62.618917)"
   id="g29">
                    <circle
   cx="96.128998"
   cy="96.171997"
   r="37.021999"
   style="fill:#ff837d"
   id="circle27" />
                </g><g
   transform="matrix(0.20633619,0,0,0.20633619,76.187487,76.186041)"
   id="g33"
   style="fill:#56595b;fill-opacity:1">
                    <circle
   cx="96.128998"
   cy="96.171997"
   r="37.021999"
   style="fill:#56595b;fill-opacity:1"
   id="circle31" />
                </g>
</svg>

<?xml version="1.0" encoding="UTF-8" standalone="no"?>
<!DOCTYPE svg PUBLIC "-//W3C//DTD SVG 1.1//EN" "http://www.w3.org/Graphics/SVG/1.1/DTD/svg11.dtd">
<svg width="100%" height="100%" viewBox="0 0 192 192" version="1.1" xmlns="http://www.w3.org/2000/svg" xmlns:xlink="http://www.w3.org/1999/xlink" xml:space="preserve" xmlns:serif="http://www.serif.com/" style="fill-rule:evenodd;clip-rule:evenodd;stroke-linejoin:round;stroke-miterlimit:2;">
    <g transform="matrix(1,0,0,1,8,8)">
        <g id="Layer1">
            <path d="M164.5,21.5C164.5,15.981 160.019,11.5 154.5,11.5L21.5,11.5C15.981,11.5 11.5,15.981 11.5,21.5L11.5,154.5C11.5,160.019 15.981,164.5 21.5,164.5L154.5,164.5C160.019,164.5 164.5,160.019 164.5,154.5L164.5,21.5Z" style="fill:rgb(74,74,74);"/>
        </g>
    </g>
    <g transform="matrix(0.826684,0,0,0.826684,16.6607,16.6681)">
        <g id="Layer2">
            <g>
                <g transform="matrix(1.20965,0,0,1.20965,-20.1536,-20.1626)">
                    <path d="M131.957,62.344C131.957,61.813 131.747,61.304 131.371,60.929C130.996,60.554 130.488,60.344 129.957,60.344L62.301,60.344C61.77,60.344 61.262,60.554 60.887,60.929C60.511,61.304 60.301,61.813 60.301,62.344L60.301,130C60.301,130.53 60.511,131.039 60.887,131.414C61.262,131.789 61.77,132 62.301,132L129.957,132C130.488,132 130.996,131.789 131.371,131.414C131.747,131.039 131.957,130.53 131.957,130L131.957,62.344ZM126.734,67.566C126.734,66.462 125.839,65.566 124.734,65.566L67.524,65.566C66.419,65.566 65.524,66.462 65.524,67.566L65.524,124.777C65.524,125.882 66.419,126.777 67.524,126.777L124.734,126.777C125.839,126.777 126.734,125.882 126.734,124.777L126.734,67.566Z" style="fill:rgb(255,131,125);"/>
                </g>
                <g transform="matrix(1.02855,0,0,1.02855,-2.87353,-2.91753)">
                    <circle cx="96.129" cy="96.172" r="37.022" style="fill:rgb(255,131,125);"/>
                </g>
                <g transform="matrix(0.870416,0,0,0.870416,12.3277,12.2905)">
                    <circle cx="96.129" cy="96.172" r="37.022" style="fill:rgb(74,74,74);"/>
                </g>
                <g transform="matrix(0.736595,0,0,0.736595,25.1919,25.1604)">
                    <circle cx="96.129" cy="96.172" r="37.022" style="fill:rgb(255,131,125);"/>
                </g>
                <g transform="matrix(0.562778,0,0,0.562778,41.9007,41.8766)">
                    <circle cx="96.129" cy="96.172" r="37.022" style="fill:rgb(74,74,74);"/>
                </g>
                <g transform="matrix(0.420243,0,0,0.420243,55.6025,55.5845)">
                    <circle cx="96.129" cy="96.172" r="37.022" style="fill:rgb(255,131,125);"/>
                </g>
                <g transform="matrix(0.249595,0,0,0.249595,72.0067,71.996)">
                    <circle cx="96.129" cy="96.172" r="37.022" style="fill:rgb(74,74,74);"/>
                </g>
            </g>
        </g>
    </g>
</svg>
